X: 31
T:Minstrel Boy
M:4/4
L:1/8
Q:200
C:Trad
S:J.Mª Hernansáez
K:G
D3 E GF ED | F3 A d2 c>d | B2A2 FG AF |1 
E4 :|2 E4 D2 FA | d2 c2 B2 cd | c2 B2 A3 A | B3 F F3 A |
B>A Bc d4 | D3 E GF ED | F2A2 d2 c>d | B2 A2 F>G AF |
E4 D2 |: DF | A2FA d2 dB | A2 FD ^C2 D>E | F2 E>F AG E^C |
 D2 D>E D2 | A B2 G>B d3B | A2 d>B A2 FA |
B2 G>B d3B | A3 B AF DF | A2 FA d2 dB | A2 FD ^C2 D>E |
F2 E>F AG E^C | D2 D>E D3 A | D4 ||

% Output from ABC2Win  Version 2.1 h on 21/02/2000
